symbols/web/folder/materialsymbolssharp/folder_wght300gradN25_24px.svg

<svg xmlns="http://www.w3.org/2000/svg" height="24" width="24"><path d="M2.7 5.15H10.475L12 6.65H21.3V19.35H2.7ZM4.1 6.55V17.95H19.9V8.05H11.425L9.925 6.55ZM4.1 17.95V6.55V8.05V17.95Z"/></svg>

<svg xmlns="http://www.w3.org/2000/svg" height="24" width="24"><path d="M2.7 5.15h7.775L12 6.65h9.3v12.7H2.7Zm1.4 1.4v11.4h15.8v-9.9h-8.475l-1.5-1.5Zm0 11.4V6.55v11.4Z"/></svg>
